X: 28622
T: Music In The Glen
R: reel
M: 4/4
K: Gmajor
G2BG EGDC|B,DGB AGAB|C2EC B2DB|AGAB AGEF|
G2BG EGDC|B,DGB AGAB|cdef gfge|dcBA G4:|
B2dB eBdB|B2dB ABGA|B2dB eBde|gdBG AGEG|
B2dB eBdB|g2fg agef|g2fg egdB|cABG AGEF:|

